img/icons/shopping/credit_card.svg

<svg fill="none" viewBox="0 0 16 16" xmlns="http://www.w3.org/2000/svg"><path d="m14 2h-12c-1.1 0-2 0.897-2 2v8c0 1.1 0.897 2 2 2h12c1.1 0 2-0.897 2-2v-8c0-1.1-0.897-2-2-2zm1 10c0 0.55-0.45 1-1 1h-12c-0.55 0-1-0.45-1-1v-5h14v5zm-14-8c0-0.55 0.45-1 1-1h12c0.55 0 1 0.45 1 1v1h-14v-1zm4 8h-1c-0.552 0-1-0.448-1-1v-1c0-0.552 0.448-1 1-1h1c0.552 0 1 0.448 1 1v1c0 0.552-0.448 1-1 1z" fill="#000"/></svg>

<svg xmlns="http://www.w3.org/2000/svg" viewBox="0 0 16 16" fill="none">
  <path fill="#000"
    d="M14 2H2C.897 2 0 2.897 0 4v8c0 1.103.897 2 2 2h12c1.103 0 2-.897 2-2V4c0-1.103-.897-2-2-2Zm1 10c0 .55-.45 1-1 1H2c-.55 0-1-.45-1-1V7h14v5ZM1 4c0-.55.45-1 1-1h12c.55 0 1 .45 1 1v1H1V4Zm4 8H4a1 1 0 0 1-1-1v-1a1 1 0 0 1 1-1h1a1 1 0 0 1 1 1v1a1 1 0 0 1-1 1Z" />
</svg>
